X:60
T:Carolanâ€™s Recpt for drinking Whiskey. JMP.060
M:4/4
L:1/8
Q:1/2=50
C:â€65â€
S:John Miller MS. Perth, 1799.(for the fife)
R:.Air
O:Scotland
A:Perth
N:1 â€“ bar line missing..2 â€“ MS has 3 Eâ€™, possibly for 1st & 2nd time..
H:1799
Z:vmp.C. Graebe
K:G major
G2 | edcB cBAG | â€œtrâ€E2 G2 G2 â€œtrâ€g2 | e>dcB cBcd | e2 A2A2 Bc |!
dBde d2 (ef) | gfga g2 (fg) | edcB cBAâ€1â€³G| â€œtrâ€ E2 GA â€œtrâ€G2 :|!
|:B>c | d2 (de) dBAG | E2 G2 G2 (B>c) | dBde dB (AB/d/) |\
e2 g2g2 g>a |!
babg afad | gfgd e^deB | cBAG â€œtrâ€ G2 (Bd) |e2 g2 g2 â€œtrâ€ ge |!
dBAG G2 ge | dBAG â€œtrâ€E2 GA | BAGE AGED |E2 GA G2 :|!
|:B, | A,G,A,B, DB,DE | GEGA BABd | efge dBAB | G2E2E2 B2,|!
A,G,A,B, DB,DE | GFGA BABd | efge dBAB | \
G2â€³1st/2nd time?â€ E2E2 GA G2 ğŸ˜

